frontend/public/img/dashboard/upload.svg

<svg width="40" height="40" viewBox="0 0 40 40" fill="none" xmlns="http://www.w3.org/2000/svg">
                                  <path fill-rule="evenodd" clip-rule="evenodd" d="M11.6663 12.9167C10.5157 12.9167 9.58301 13.8494 9.58301 15C9.58301 16.1506 10.5157 17.0834 11.6663 17.0834C12.8169 17.0834 13.7497 16.1506 13.7497 15C13.7497 13.8494 12.8169 12.9167 11.6663 12.9167ZM7.08301 15C7.08301 12.4687 9.13504 10.4167 11.6663 10.4167C14.1976 10.4167 16.2497 12.4687 16.2497 15C16.2497 17.5314 14.1976 19.5834 11.6663 19.5834C9.13504 19.5834 7.08301 17.5314 7.08301 15Z" fill="#EB662B" />
                                  <path fill-rule="evenodd" clip-rule="evenodd" d="M16.9093 26.0079C14.8264 28.3404 12.654 31.5307 10.3572 35.613C10.0187 36.2147 9.25653 36.428 8.65487 36.0895C8.0532 35.7509 7.83988 34.9889 8.17838 34.3872C10.5233 30.2194 12.7967 26.8597 15.0446 24.3427C17.2867 21.8319 19.5642 20.0907 21.9317 19.2709C24.3447 18.4352 26.754 18.5917 29.1295 19.699C31.4633 20.7869 33.7245 22.7714 35.9702 25.5269C36.4062 26.062 36.326 26.8495 35.7908 27.2855C35.2557 27.7217 34.4683 27.6414 34.0322 27.1062C31.9112 24.5035 29.9327 22.8317 28.0733 21.9649C26.2557 21.1177 24.518 21.0209 22.7498 21.6332C20.936 22.2614 18.9978 23.6692 16.9093 26.0079Z" fill="#EB662B" />
                                  <path fill-rule="evenodd" clip-rule="evenodd" d="M2.73524 6.06863C4.21994 4.58393 6.23359 3.75 8.33317 3.75H20.4665C21.1568 3.75 21.7165 4.30965 21.7165 5C21.7165 5.69035 21.1568 6.25 20.4665 6.25H8.33317C6.89654 6.25 5.51879 6.82062 4.503 7.8364C3.4872 8.8522 2.9165 10.23 2.9165 11.6667V28.3333C2.9165 29.7698 3.48717 31.1475 4.503 32.1633C5.51885 33.1793 6.89662 33.75 8.33317 33.75H28.3332C29.7697 33.75 31.1475 33.1793 32.1633 32.1633C33.1792 31.1475 33.7498 29.7698 33.7498 28.3333V20C33.7498 19.3097 34.3095 18.75 34.9998 18.75C35.6902 18.75 36.2498 19.3097 36.2498 20V28.3333C36.2498 30.433 35.4158 32.4465 33.9312 33.9312C32.4465 35.4158 30.4328 36.25 28.3332 36.25H8.33317C6.23349 36.25 4.21987 35.4158 2.73524 33.9312C1.25059 32.4465 0.416504 30.433 0.416504 28.3333V11.6667C0.416504 9.56707 1.25056 7.55332 2.73524 6.06863Z" fill="#EB662B" />
                                  <path fill-rule="evenodd" clip-rule="evenodd" d="M31.25 0.13327C31.9403 0.13327 32.5 0.692913 32.5 1.38327V14.7166C32.5 15.407 31.9403 15.9666 31.25 15.9666C30.5597 15.9666 30 15.407 30 14.7166V1.38327C30 0.692913 30.5597 0.13327 31.25 0.13327Z" fill="#EB662B" />
                                  <path fill-rule="evenodd" clip-rule="evenodd" d="M30.3674 0.499385C30.8556 0.011232 31.6469 0.011232 32.1351 0.499385L37.4684 5.83273C37.9566 6.32088 37.9566 7.11233 37.4684 7.60049C36.9803 8.08864 36.1889 8.08864 35.7008 7.60049L31.2513 3.15103L26.8018 7.60049C26.3136 8.08864 25.5221 8.08864 25.0341 7.60049C24.5459 7.11233 24.5459 6.32088 25.0341 5.83273L30.3674 0.499385Z" fill="#EB662B" />
                                </svg>

<?xml version="1.0"?>
<svg width="40" height="40" xmlns="http://www.w3.org/2000/svg" xmlns:svg="http://www.w3.org/2000/svg">
 <g class="layer">
  <title>Layer 1</title>
  <path clip-rule="evenodd" d="m10.67,12.92c-1.15,0 -2.09,0.93 -2.09,2.08c0,1.15 0.94,2.08 2.09,2.08c1.15,0 2.08,-0.93 2.08,-2.08c0,-1.15 -0.93,-2.08 -2.08,-2.08zm-4.59,2.08c0,-2.53 2.06,-4.58 4.59,-4.58c2.53,0 4.58,2.05 4.58,4.58c0,2.53 -2.05,4.58 -4.58,4.58c-2.53,0 -4.59,-2.05 -4.59,-4.58z" fill="#8f5774" fill-rule="evenodd" id="svg_1"/>
  <path clip-rule="evenodd" d="m16.91,26.01c-2.08,2.33 -4.26,5.52 -6.55,9.6c-0.34,0.6 -1.1,0.82 -1.71,0.48c-0.6,-0.34 -0.81,-1.1 -0.47,-1.7c2.34,-4.17 4.62,-7.53 6.86,-10.05c2.25,-2.51 4.52,-4.25 6.89,-5.07c2.41,-0.83 4.82,-0.68 7.2,0.43c2.33,1.09 4.59,3.07 6.84,5.83c0.44,0.53 0.36,1.32 -0.18,1.76c-0.53,0.43 -1.32,0.35 -1.76,-0.18c-2.12,-2.61 -4.1,-4.28 -5.96,-5.15c-1.81,-0.84 -3.55,-0.94 -5.32,-0.33c-1.81,0.63 -3.75,2.04 -5.84,4.38z" fill="#8f5774" fill-rule="evenodd" id="svg_2"/>
  <path clip-rule="evenodd" d="m2.74,6.07c1.48,-1.49 3.49,-2.32 5.59,-2.32l12.14,0c0.69,0 1.25,0.56 1.25,1.25c0,0.69 -0.56,1.25 -1.25,1.25l-12.14,0c-1.43,0 -2.81,0.57 -3.83,1.59c-1.01,1.01 -1.58,2.39 -1.58,3.83l0,16.66c0,1.44 0.57,2.82 1.58,3.83c1.02,1.02 2.4,1.59 3.83,1.59l20,0c1.44,0 2.82,-0.57 3.83,-1.59c1.02,-1.01 1.59,-2.39 1.59,-3.83l0,-8.33c0,-0.69 0.56,-1.25 1.25,-1.25c0.69,0 1.25,0.56 1.25,1.25l0,8.33c0,2.1 -0.83,4.12 -2.32,5.6c-1.48,1.49 -3.5,2.32 -5.6,2.32l-20,0c-2.1,0 -4.11,-0.83 -5.59,-2.32c-1.49,-1.48 -2.32,-3.5 -2.32,-5.6l0,-16.66c0,-2.1 0.83,-4.12 2.32,-5.6z" fill="#8f5774" fill-rule="evenodd" id="svg_3"/>
  <path clip-rule="evenodd" d="m31.25,0.13c0.69,0 1.25,0.56 1.25,1.25l0,13.34c0,0.69 -0.56,1.25 -1.25,1.25c-0.69,0 -1.25,-0.56 -1.25,-1.25l0,-13.34c0,-0.69 0.56,-1.25 1.25,-1.25z" fill="#8f5774" fill-rule="evenodd" id="svg_4"/>
  <path clip-rule="evenodd" d="m30.37,0.5c0.49,-0.49 1.28,-0.49 1.77,0l5.33,5.33c0.49,0.49 0.49,1.28 0,1.77c-0.49,0.49 -1.28,0.49 -1.77,0l-4.45,-4.45l-4.45,4.45c-0.49,0.49 -1.28,0.49 -1.77,0c-0.48,-0.49 -0.48,-1.28 0,-1.77l5.34,-5.33z" fill="#8f5774" fill-rule="evenodd" id="svg_5"/>
 </g>
</svg>
